X:1
T:Harry Potter
L:1/8
Q:90
K:G
z4zB,|E3/2G/2F E2B|A3 F3|E3/2G/2F D2=F|
B,4B,B,|E3/2G/2^F E2B|d2^c =c2^G|c3/2B/2^A F2=G|
E4EG|B2G B2G|c2B ^A2F|G3/2B/2^A ^A,2B,|
B4BG|B2G B2G|d2^c =c2^G|c3/2B/2^A F2=G|
G4